X: 422
T:Regina celi letare
N: Derived from Jos9903-Regina_celi_letare.krn
C: Josquin des Prez
%%abc-version 2.0
%%abcx-abcm2ps-target-version 5.9.1 (29 Sep 2008)
%%abc-creator hum2abc beta
%%abcx-conversion-date 2019/02/12 16:15:56
%%abc-edited-by Jesse Rodin
%%abc-edited-by Chris Gage 06-08-2012
%%abcx-initial-encoding-date 2012/06/29/
%%humdrum-veritas 1247195787
%%humdrum-veritas-data 3243324012
%%linebreak <none>
%%barnumbers 0
L: 1/4
M: 2/1
Q: 1/2=120
V: 1 clef=treble
V: 2 clef=treble-8
V: 3 clef=treble-8
V: 4 clef=treble-8
V: 5 clef=bass
V: 6 clef=bass
K: F
[V:1] z8 | 
[V:2] z8 | 
[V:3] z8 | 
[V:4] F8 | 
[V:5] z8 | 
[V:6] z8 | 
[V:1] F8 | 
[V:2] z8 | 
[V:3] z8 | 
[V:4] B4A4 | 
[V:5] z8 | 
[V:6] z8 | 
[V:1] G4F4 | 
[V:2] z8 | 
[V:3] z8 | 
[V:4] G4B4- | 
[V:5] z8 | 
[V:6] z8 | 
[V:1] G8 | 
[V:2] z8 | 
[V:3] z8 | 
[V:4] B2A2G4 | 
[V:5] z8 | 
[V:6] z8 | 
[V:1] A8 | 
[V:2] z8 | 
[V:3] z8 | 
[V:4] F8 | 
[V:5] z8 | 
[V:6] F,,8 | 
[V:1] z8 | 
[V:2] F8 | 
[V:3] z8 | 
[V:4] z8 | 
[V:5] z8 | 
[V:6] B,,4A,,4 | 
[V:1] z8 | 
[V:2] G4F4 | 
[V:3] z8 | 
[V:4] z8 | 
[V:5] z8 | 
[V:6] G,,4B,,4- | 
[V:1] z8 | 
[V:2] G8 | 
[V:3] z8 | 
[V:4] z8 | 
[V:5] z8 | 
[V:6] B,,2A,,2G,,4 | 
[V:1] z8 | 
[V:2] A8 | 
[V:3] z8 | 
[V:4] C8 | 
[V:5] z8 | 
[V:6] F,,8 | 
[V:1] C8 | 
[V:2] z8 | 
[V:3] z8 | 
[V:4] F4E4 | 
[V:5] z8 | 
[V:6] z8 | 
[V:1] D4C4 | 
[V:2] B4A3G | 
[V:3] z8 | 
[V:4] D4F4- | 
[V:5] z8 | 
[V:6] z8 | 
[V:1] D8 | 
[V:2] ABc4=B2 | 
[V:3] z8 | 
[V:4] F2E2D4 | 
[V:5] z8 | 
[V:6] z8 | 
[V:1] E8 | 
[V:2] c8- | 
[V:3] z8 | 
[V:4] C4G4 | 
[V:5] C,8- | 
[V:6] z8 | 
[V:1] F6E2 | 
[V:2] c8 | 
[V:3] z8 | 
[V:4] A2FGABcA | 
[V:5] C,8 | 
[V:6] F,,8 | 
[V:1] D6E2 | 
[V:2] z4B4 | 
[V:3] F8- | 
[V:4] B4F3G | 
[V:5] D,8 | 
[V:6] B,,4B,,4 | 
[V:1] F2G2A4 | 
[V:2] c4A4 | 
[V:3] F8 | 
[V:4] A2B2c4 | 
[V:5] C,8 | 
[V:6] A,,8 | 
[V:1] z4B4 | 
[V:2] z2B3cd2- | 
[V:3] G8 | 
[V:4] B4G4 | 
[V:5] D,8- | 
[V:6] G,,4G,,4 | 
[V:1] A3GF4 | 
[V:2] dcc4=B2 | 
[V:3] F8 | 
[V:4] z4D4 | 
[V:5] D,8 | 
[V:6] D,8 | 
[V:1] z4c4- | 
[V:2] c3defg2- | 
[V:3] G8- | 
[V:4] G3FE3D | 
[V:5] E,8- | 
[V:6] C,8 | 
[V:1] c2BAG4 | 
[V:2] gfede4 | 
[V:3] G8 | 
[V:4] C8- | 
[V:5] E,8 | 
[V:6] z4C,4 | 
[V:1] F8 | 
[V:2] f4z2c2- | 
[V:3] A8- | 
[V:4] C8 | 
[V:5] z4F,4 | 
[V:6] F,,8 | 
[V:1] z4c4 | 
[V:2] c2d2e4 | 
[V:3] A8 | 
[V:4] z4C4 | 
[V:5] E,8 | 
[V:6] C,8 | 
[V:1] d8- | 
[V:2] f4z2F2- | 
[V:3] z4B4 | 
[V:4] F8 | 
[V:5] D,8 | 
[V:6] B,,8 | 
[V:1] d4A4 | 
[V:2] F2G2A4 | 
[V:3] A8 | 
[V:4] D8 | 
[V:5] z2F,3E,D,C, | 
[V:6] z8 | 
[V:1] B4c4 | 
[V:2] B4z2G2 | 
[V:3] G8 | 
[V:4] z2D2E4 | 
[V:5] D,4C,4 | 
[V:6] G,,4C,4 | 
[V:1] d2D3EF2- | 
[V:2] B3cd2B2 | 
[V:3] z2B3AGF | 
[V:4] F6D2 | 
[V:5] z8 | 
[V:6] B,,6D,2 | 
[V:1] F2E2F4 | 
[V:2] c4A4 | 
[V:3] G4F4 | 
[V:4] E4C4- | 
[V:5] z4F,4 | 
[V:6] C,4F,,4 | 
[V:1] z8 | 
[V:2] G2c4=B2 | 
[V:3] z8 | 
[V:4] C4z2F2 | 
[V:5] E,4D,4 | 
[V:6] z2C,2D,2F,2- | 
[V:1] z4F4- | 
[V:2] c4z2F2 | 
[V:3] z4B4 | 
[V:4] G2G2F4- | 
[V:5] C,4D,4- | 
[V:6] F,2E,2F,4 | 
[V:1] F4G3A | 
[V:2] F2F2c4 | 
[V:3] A4G4 | 
[V:4] F4C4 | 
[V:5] D,4E,4 | 
[V:6] z8 | 
[V:1] B2A2G2F2 | 
[V:2] z4G4 | 
[V:3] F4G4- | 
[V:4] z2F2D4 | 
[V:5] D,8 | 
[V:6] z4B,,4 | 
[V:1] E4C2F2- | 
[V:2] c6c2 | 
[V:3] G4A4 | 
[V:4] E6F2 | 
[V:5] C,8- | 
[V:6] C,4A,,2F,,2 | 
[V:1] F2EDE4 | 
[V:2] c8- | 
[V:3] G8 | 
[V:4] G4E4 | 
[V:5] C,8 | 
[V:6] C,8 | 
[V:1] F8 | 
[V:2] c8 | 
[V:3] F8- | 
[V:4] A8- | 
[V:5] z8 | 
[V:6] F,,8- | 
[V:1] z4C4- | 
[V:2] F6G2 | 
[V:3] F8 | 
[V:4] A8 | 
[V:5] z8 | 
[V:6] F,,8 | 
[V:1] C2D2E2F2 | 
[V:2] A2B2c2d2 | 
[V:3] z8 | 
[V:4] z4z2F2 | 
[V:5] z8 | 
[V:6] z8 | 
[V:1] G2A3Bc2- | 
[V:2] e2f4e2 | 
[V:3] z8 | 
[V:4] c4c4 | 
[V:5] z8 | 
[V:6] z8 | 
[V:1] c2B2A2G2- | 
[V:2] f3de3c | 
[V:3] z8 | 
[V:4] d4c4 | 
[V:5] z8 | 
[V:6] z8 | 
[V:1] G2A3G/F/G2 | 
[V:2] def4ed | 
[V:3] z8 | 
[V:4] B3AB4 | 
[V:5] z8 | 
[V:6] z8 | 
[V:1] A4z2A2- | 
[V:2] c8- | 
[V:3] z8 | 
[V:4] A2FGABc2- | 
[V:5] z8 | 
[V:6] z4F,,4 | 
[V:1] A2GFEDE2 | 
[V:2] c8 | 
[V:3] z8 | 
[V:4] c2BAGFG2 | 
[V:5] z8 | 
[V:6] C,4C,4 | 
[V:1] F4F4 | 
[V:2] z4F4 | 
[V:3] z8 | 
[V:4] F2A4GF | 
[V:5] z8 | 
[V:6] D,3C,D,4 | 
[V:1] G4A4 | 
[V:2] c4c4 | 
[V:3] z8 | 
[V:4] E3DE4 | 
[V:5] z4C,4 | 
[V:6] C,8 | 
[V:1] B8 | 
[V:2] d3cd2B2 | 
[V:3] z8 | 
[V:4] D8 | 
[V:5] G,8 | 
[V:6] B,,3A,,G,,4 | 
[V:1] z4c4- | 
[V:2] c8 | 
[V:3] z4F4 | 
[V:4] F4z2C2 | 
[V:5] A,8 | 
[V:6] F,,4A,,4 | 
[V:1] c2BAG2c2- | 
[V:2] z8 | 
[V:3] c8 | 
[V:4] C4C4 | 
[V:5] G,8- | 
[V:6] z8 | 
[V:1] c2BAB4 | 
[V:2] z2B4A2 | 
[V:3] d8 | 
[V:4] G4D4 | 
[V:5] G,8 | 
[V:6] G,,8 | 
[V:1] c8 | 
[V:2] G3FG4 | 
[V:3] c8- | 
[V:4] E4C4 | 
[V:5] z8 | 
[V:6] C,4C,4 | 
[V:1] z2c3BG2 | 
[V:2] F4z4 | 
[V:3] c8 | 
[V:4] C8 | 
[V:5] F,4E,4 | 
[V:6] F,,3G,,A,,B,,C,2- | 
[V:1] A2B2G2A2 | 
[V:2] f4e4 | 
[V:3] z8 | 
[V:4] z2D2E4 | 
[V:5] D,4C,4 | 
[V:6] C,2B,,2C,4 | 
[V:1] B4z4 | 
[V:2] d2B2c4- | 
[V:3] B4A4 | 
[V:4] F4z4 | 
[V:5] D,4E,4 | 
[V:6] B,,2D,2C,4- | 
[V:1] G2c4=B2 | 
[V:2] c4d4 | 
[V:3] G4F4 | 
[V:4] z2C2F2D2 | 
[V:5] E,4z4 | 
[V:6] C,4z4 | 
[V:1] c8 | 
[V:2] e4e4 | 
[V:3] G4A4 | 
[V:4] C8- | 
[V:5] z8 | 
[V:6] z8 | 
[V:1] z2c3BG2 | 
[V:2] z8 | 
[V:3] A4z4 | 
[V:4] C8 | 
[V:5] F,4E,4 | 
[V:6] F,,3G,,A,,B,,C,2- | 
[V:1] A2B2G2A2 | 
[V:2] f4e4 | 
[V:3] z8 | 
[V:4] z2D2E4 | 
[V:5] D,4C,4 | 
[V:6] C,2B,,2C,4 | 
[V:1] B4z4 | 
[V:2] d2B2c4- | 
[V:3] B4A4 | 
[V:4] F4z4 | 
[V:5] D,4E,4 | 
[V:6] B,,2D,2C,4- | 
[V:1] G2c4=B2 | 
[V:2] c4d4 | 
[V:3] G4F4 | 
[V:4] z2C2F2D2 | 
[V:5] E,4z4 | 
[V:6] C,4z4 | 
[V:1] c8 | 
[V:2] e4e4 | 
[V:3] G4A4 | 
[V:4] C8 | 
[V:5] z8 | 
[V:6] z8 | 
[V:1] z8 | 
[V:2] z4c4 | 
[V:3] A4z4 | 
[V:4] z4A4 | 
[V:5] F,8 | 
[V:6] F,,8 | 
[V:1] z8 | 
[V:2] d6c2 | 
[V:3] z8 | 
[V:4] B4A4 | 
[V:5] D,4F,4 | 
[V:6] B,,3C,D,4 | 
[V:1] z4G4- | 
[V:2] B2G2d4 | 
[V:3] B8 | 
[V:4] G8- | 
[V:5] G,6F,2 | 
[V:6] G,,8- | 
[V:1] G2FED4 | 
[V:2] z4G4 | 
[V:3] G4B4 | 
[V:4] G8 | 
[V:5] E,2C,2D,4 | 
[V:6] G,,8 | 
[V:1] E2CDEFG2- | 
[V:2] G4-G2E2 | 
[V:3] c6B2 | 
[V:4] z4C4 | 
[V:5] C,8 | 
[V:6] z8 | 
[V:1] GFF4E2 | 
[V:2] F4c4 | 
[V:3] A2F2G4 | 
[V:4] D4C4 | 
[V:5] z8 | 
[V:6] z8 | 
[V:1] F8 | 
[V:2] z4c4 | 
[V:3] F8 | 
[V:4] z4A4 | 
[V:5] z4F,4 | 
[V:6] F,,8 | 
[V:1] z8 | 
[V:2] d6c2 | 
[V:3] z8 | 
[V:4] B4A4 | 
[V:5] D,4F,4 | 
[V:6] B,,3C,D,4 | 
[V:1] z4G4- | 
[V:2] B2G2d4 | 
[V:3] z4B4 | 
[V:4] G8- | 
[V:5] G,6F,2 | 
[V:6] G,,8- | 
[V:1] G2FED4 | 
[V:2] z4G4 | 
[V:3] G4B4 | 
[V:4] G8 | 
[V:5] E,2C,2D,4 | 
[V:6] G,,8 | 
[V:1] E4C4- | 
[V:2] G4A3B | 
[V:3] c6B2 | 
[V:4] z4C4- | 
[V:5] C,8- | 
[V:6] z4F,,4 | 
[V:1] C2F4E2 | 
[V:2] c8 | 
[V:3] A2F2G4 | 
[V:4] C2c3BG2 | 
[V:5] C,8 | 
[V:6] F,,4C,4 | 
[V:1] F8 | 
[V:2] c4A4 | 
[V:3] F8- | 
[V:4] A3Bc2C2 | 
[V:5] z4F,4 | 
[V:6] F,,4z2F,,2 | 
[V:1] z4z2F2 | 
[V:2] B2B2c4 | 
[V:3] F8 | 
[V:4] D3EF4 | 
[V:5] D,4C,4 | 
[V:6] B,,4A,,4 | 
[V:1] B4G4- | 
[V:2] B8- | 
[V:3] z4B4 | 
[V:4] G8 | 
[V:5] D,4E,4 | 
[V:6] G,,8 | 
[V:1] G2A2B4 | 
[V:2] B8 | 
[V:3] G4F4 | 
[V:4] z4D4 | 
[V:5] D,8 | 
[V:6] B,,8 | 
[V:1] c3BA3G/F/ | 
[V:2] z4c4- | 
[V:3] G4A4 | 
[V:4] E4F4 | 
[V:5] C,8- | 
[V:6] z4F,,4 | 
[V:1] E2F2F2E2 | 
[V:2] c2c2c4 | 
[V:3] G8 | 
[V:4] G8 | 
[V:5] C,8- | 
[V:6] C,4C,4 | 
[V:1] F8 ||  
[V:2] c8 ||  
[V:3] F8 ||  
[V:4] A8 ||  
[V:5] C,8 ||  
[V:6] F,,8 ||  
[V:1]  [K:F] [K:clef=treble][M:2/1]z8 | 
[V:2]  [K:F] [K:clef=treble-8][M:2/1]B8 | 
[V:3]  [K:F] [K:clef=treble-8][M:2/1]z8 | 
[V:4]  [K:F] [K:clef=treble-8][M:2/1]z8 | 
[V:5]  [K:F] [K:clef=bass][M:2/1]z8 | 
[V:6]  [K:F] [K:clef=bass][M:2/1]z8 | 
[V:1] z8 | 
[V:2] c4d4- | 
[V:3] z8 | 
[V:4] F8 | 
[V:5] z8 | 
[V:6] z4B,,4- | 
[V:1] z8 | 
[V:2] d2c2c4- | 
[V:3] z8 | 
[V:4] G4A4- | 
[V:5] z8 | 
[V:6] B,,4C,4 | 
[V:1] z8 | 
[V:2] c2=BA=B4 | 
[V:3] z8 | 
[V:4] A2G2F4- | 
[V:5] z8 | 
[V:6] D,8 | 
[V:1] C8 | 
[V:2] c4G4 | 
[V:3] z8 | 
[V:4] F2EDE4 | 
[V:5] z8 | 
[V:6] C,8 | 
[V:1] C4C4 | 
[V:2] A6G2 | 
[V:3] z8 | 
[V:4] F6E2 | 
[V:5] z8 | 
[V:6] z4F,,4- | 
[V:1] D8 | 
[V:2] A4B4 | 
[V:3] z8 | 
[V:4] D4G4 | 
[V:5] z8 | 
[V:6] F,,4G,,4 | 
[V:1] C2c2c2c2 | 
[V:2] c4z2A2 | 
[V:3] z8 | 
[V:4] C8 | 
[V:5] F,8 | 
[V:6] A,,8 | 
[V:1] B4A2F2 | 
[V:2] B3cd4- | 
[V:3] z8 | 
[V:4] D8- | 
[V:5] G,4A,4- | 
[V:6] G,,4D,4 | 
[V:1] G8 | 
[V:2] d2c2d4 | 
[V:3] B8 | 
[V:4] D8 | 
[V:5] A,2G,2G,4- | 
[V:6] G,,8 | 
[V:1] z4B4- | 
[V:2] e4z2d2 | 
[V:3] c4d4- | 
[V:4] C4z4 | 
[V:5] G,2F,E,F,4 | 
[V:6] C,4B,,4 | 
[V:1] B4c4 | 
[V:2] B4G4 | 
[V:3] d2c2c4- | 
[V:4] D4E4 | 
[V:5] G,8- | 
[V:6] G,,4C,4 | 
[V:1] d8 | 
[V:2] g8 | 
[V:3] c2=BA=B4 | 
[V:4] D8 | 
[V:5] G,8- | 
[V:6] G,,8 | 
[V:1] c4c4 | 
[V:2] g4c4 | 
[V:3] c8- | 
[V:4] E8 | 
[V:5] G,8 | 
[V:6] C,8 | 
[V:1] F8 | 
[V:2] A3BcBcd | 
[V:3] c8- | 
[V:4] z2F4ED | 
[V:5] z8 | 
[V:6] z8 | 
[V:1] G8 | 
[V:2] e2f4e2 | 
[V:3] c8 | 
[V:4] C4C4 | 
[V:5] G,8 | 
[V:6] z8 | 
[V:1] F8 | 
[V:2] f3edcf2- | 
[V:3] z8 | 
[V:4] F6D2 | 
[V:5] C,4D,4 | 
[V:6] F,,4B,,4 | 
[V:1] z4z2F2- | 
[V:2] f2e2f3e | 
[V:3] c8 | 
[V:4] E4C4 | 
[V:5] C,4z4 | 
[V:6] C,4F,,4 | 
[V:1] F2EDE2E2 | 
[V:2] d2B2c4 | 
[V:3] F4G4 | 
[V:4] D2D2C4 | 
[V:5] z4G,4 | 
[V:6] z8 | 
[V:1] F8 | 
[V:2] z2A2B2B2 | 
[V:3] F4z4 | 
[V:4] z2F4ED | 
[V:5] C,4D,4 | 
[V:6] F,,4B,,4 | 
[V:1] z4z2F2- | 
[V:2] G4A3B | 
[V:3] z4c4 | 
[V:4] E2E2F4 | 
[V:5] C,8- | 
[V:6] C,4F,,3G,, | 
[V:1] F2EDE2E2 | 
[V:2] c8- | 
[V:3] F4G4 | 
[V:4] z8 | 
[V:5] C,8 | 
[V:6] A,,2F,,2C,4 | 
[V:1] F4z2F2 | 
[V:2] c8 | 
[V:3] F8- | 
[V:4] C4F4- | 
[V:5] z8 | 
[V:6] F,,8 | 
[V:1] D3EF2F2 | 
[V:2] z8 | 
[V:3] F8 | 
[V:4] F2EDD2A2 | 
[V:5] z8 | 
[V:6] z8 | 
[V:1] G3FEDG2- | 
[V:2] z4z2B2 | 
[V:3] z8 | 
[V:4] B2c4G2 | 
[V:5] z8 | 
[V:6] z8 | 
[V:1] G2FEDCD2 | 
[V:2] G3AB2B2 | 
[V:3] z8 | 
[V:4] E3FG4 | 
[V:5] z8 | 
[V:6] z8 | 
[V:1] E2C3DEF | 
[V:2] c3BAGc2- | 
[V:3] z8 | 
[V:4] C2F4ED | 
[V:5] z8 | 
[V:6] z8 | 
[V:1] GFF4E2 | 
[V:2] c2BAGFG2 | 
[V:3] z8 | 
[V:4] C8 | 
[V:5] z8 | 
[V:6] z8 | 
[V:1] F8- | 
[V:2] F8 | 
[V:3] z8 | 
[V:4] z8 | 
[V:5] z4z2F,2 | 
[V:6] z2F,3E,D,2- | 
[V:1] F8 | 
[V:2] z8 | 
[V:3] z8 | 
[V:4] z8 | 
[V:5] D,3E,F,2F,2 | 
[V:6] D,2C,B,,A,,G,,A,,2 | 
[V:1] z8 | 
[V:2] z8 | 
[V:3] z4z2B2 | 
[V:4] z8 | 
[V:5] G,3G,F,E,G,2- | 
[V:6] G,,2C,4B,,2 | 
[V:1] z8 | 
[V:2] z8 | 
[V:3] G3AB2B2 | 
[V:4] z8 | 
[V:5] G,2F,E,D,C,D,2 | 
[V:6] C,4z2G,,2 | 
[V:1] z8 | 
[V:2] z8 | 
[V:3] c3BAGc2- | 
[V:4] z8 | 
[V:5] C,8- | 
[V:6] A,,B,,C,D,E,F,G,2- | 
[V:1] z8 | 
[V:2] c8- | 
[V:3] c2BAGFG2 | 
[V:4] z8 | 
[V:5] C,8 | 
[V:6] G,F,F,4E,2 | 
[V:1] F6G2 | 
[V:2] c8 | 
[V:3] F8- | 
[V:4] A6B2 | 
[V:5] z8 | 
[V:6] F,8 | 
[V:1] A4B4- | 
[V:2] F8 | 
[V:3] F8 | 
[V:4] c4d4- | 
[V:5] z8 | 
[V:6] z4B,,4- | 
[V:1] B4A3G | 
[V:2] G4A4- | 
[V:3] z8 | 
[V:4] d4c4 | 
[V:5] z8 | 
[V:6] B,,4C,4 | 
[V:1] F4z2F2 | 
[V:2] A4B3A | 
[V:3] z8 | 
[V:4] F6E2 | 
[V:5] z8 | 
[V:6] D,6C,2 | 
[V:1] G2A2B2B2 | 
[V:2] G2F4E2 | 
[V:3] z8 | 
[V:4] D2C4B,2 | 
[V:5] z8 | 
[V:6] B,,2A,,2G,,4 | 
[V:1] A3GF4 | 
[V:2] F2F2A4 | 
[V:3] z8 | 
[V:4] C8 | 
[V:5] z8 | 
[V:6] F,,8 | 
[V:1] E6DE | 
[V:2] G4c4- | 
[V:3] z8 | 
[V:4] c8 | 
[V:5] G,8 | 
[V:6] C,6B,,2 | 
[V:1] F4D4 | 
[V:2] c2BAB4 | 
[V:3] z8 | 
[V:4] F4G4- | 
[V:5] C,4D,4 | 
[V:6] A,,4G,,4 | 
[V:1] C4c4- | 
[V:2] z4c4 | 
[V:3] c8 | 
[V:4] G4A4 | 
[V:5] E,4F,4- | 
[V:6] C,4F,,4 | 
[V:1] c2BAB4 | 
[V:2] d6e2 | 
[V:3] F4G4 | 
[V:4] B4G4 | 
[V:5] F,2E,2D,4 | 
[V:6] B,,8 | 
[V:1] A3FF2G2- | 
[V:2] f4f2_e2- | 
[V:3] A4B4- | 
[V:4] F4D2_E2- | 
[V:5] C,4z4 | 
[V:6] F,,4z4 | 
[V:1] GFF4E2 | 
[V:2] e2d2c3B | 
[V:3] B2A2G4 | 
[V:4] E2F2C4 | 
[V:5] z4z2C,2 | 
[V:6] z4C,4 | 
[V:1] F4z4 | 
[V:2] AGA2G2c2 | 
[V:3] F4z4 | 
[V:4] z4z2C2 | 
[V:5] C,3D,E,2F,2 | 
[V:6] F,,4G,,2A,,2 | 
[V:1] z4z2c2 | 
[V:2] z2c3Ac2 | 
[V:3] z4z2F2 | 
[V:4] D2E4F2 | 
[V:5] G,3F,/G,/A,3G, | 
[V:6] B,,2C,4A,,2 | 
[V:1] d2d2c4- | 
[V:2] B2B2c4 | 
[V:3] F3GA2B2 | 
[V:4] D4z4 | 
[V:5] F,2D,2E,4- | 
[V:6] B,,4A,,4- | 
[V:1] c2BAB4 | 
[V:2] A4z2G2- | 
[V:3] c3B/c/d3c | 
[V:4] z2C2G2G2 | 
[V:5] E,4z4 | 
[V:6] A,,4z4 | 
[V:1] z2B2A3B | 
[V:2] G2d4A2- | 
[V:3] B2G2A4- | 
[V:4] D8 | 
[V:5] G,4F,4 | 
[V:6] G,,4D,4 | 
[V:1] c2A2B2B2 | 
[V:2] AGA2d2G2 | 
[V:3] A4z4 | 
[V:4] E4F2G2 | 
[V:5] E,2C,2D,4 | 
[V:6] C,4B,,2G,,2 | 
[V:1] c2A2B2G2- | 
[V:2] c4z2G2 | 
[V:3] c4B4 | 
[V:4] E2F2G4 | 
[V:5] C,4z4 | 
[V:6] A,,4z4 | 
[V:1] GFF4E2 | 
[V:2] A2B2c3B | 
[V:3] A2F2G4 | 
[V:4] C8 | 
[V:5] z4z2C,2 | 
[V:6] z4C,4 | 
[V:1] F4z4 | 
[V:2] AGA2G2c2 | 
[V:3] F4z4 | 
[V:4] z4z2C2 | 
[V:5] C,3D,E,2F,2 | 
[V:6] F,,4G,,2A,,2 | 
[V:1] z4z2c2 | 
[V:2] z2c3Ac2 | 
[V:3] z4z2F2 | 
[V:4] D2E4F2 | 
[V:5] G,3F,/G,/A,3G, | 
[V:6] B,,2C,4A,,2 | 
[V:1] d2d2c4- | 
[V:2] B2B2c4 | 
[V:3] F3GA2B2 | 
[V:4] D4z4 | 
[V:5] F,2D,2E,4- | 
[V:6] B,,4A,,4- | 
[V:1] c2BAB4 | 
[V:2] A4z2G2- | 
[V:3] c3B/c/d3c | 
[V:4] z2C2G2G2 | 
[V:5] E,4z4 | 
[V:6] A,,4z4 | 
[V:1] z2B2A3B | 
[V:2] G2d4A2- | 
[V:3] B2G2A4- | 
[V:4] D8 | 
[V:5] G,4F,4 | 
[V:6] G,,4D,4 | 
[V:1] c2A2B2B2 | 
[V:2] AGA2d2G2 | 
[V:3] A4z4 | 
[V:4] E4F2G2 | 
[V:5] E,2C,2D,4 | 
[V:6] C,4B,,2G,,2 | 
[V:1] c2A2B2G2 | 
[V:2] c4d4- | 
[V:3] c4B4 | 
[V:4] E2F2G4 | 
[V:5] C,4z2D,2 | 
[V:6] A,,4z2G,,2 | 
[V:1] A2B2c4 | 
[V:2] d4z4 | 
[V:3] A2F2G4 | 
[V:4] F2D2EFGA | 
[V:5] F,4E,4 | 
[V:6] D,2D,2C,4 | 
[V:1] z2d4d2 | 
[V:2] d6d2 | 
[V:3] F4z2G2 | 
[V:4] B4B2B2 | 
[V:5] D,8 | 
[V:6] z2B,,4B,,2 | 
[V:1] d4c4- | 
[V:2] B4c4- | 
[V:3] B4A4 | 
[V:4] F4c4 | 
[V:5] z2D,2F,4 | 
[V:6] B,,4F,,4 | 
[V:1] c2BAB4- | 
[V:2] c4d4- | 
[V:3] G8 | 
[V:4] G6A2 | 
[V:5] E,4D,4- | 
[V:6] C,4G,,4- | 
[V:1] B4G4 | 
[V:2] d4B4 | 
[V:3] z2G2B4 | 
[V:4] B4z4 | 
[V:5] D,4z2D,2 | 
[V:6] G,,4z2G,,2 | 
[V:1] E4C4 | 
[V:2] c8 | 
[V:3] A4G4- | 
[V:4] z4G4- | 
[V:5] E,8 | 
[V:6] C,8 | 
[V:1] D8 | 
[V:2] z4G4 | 
[V:3] G4z2G2 | 
[V:4] G2A2B4 | 
[V:5] D,8 | 
[V:6] B,,8 | 
[V:1] C6D2 | 
[V:2] c6c2 | 
[V:3] A8 | 
[V:4] c2A2c4- | 
[V:5] E,8- | 
[V:6] A,,6B,,2 | 
[V:1] E2F4E2 | 
[V:2] c8- | 
[V:3] G8 | 
[V:4] c2BAG4 | 
[V:5] E,4C,4 | 
[V:6] C,8 | 
[V:1] F8- | 
[V:2] c8- | 
[V:3] A8- | 
[V:4] F4z2C2 | 
[V:5] C,8- | 
[V:6] F,,8- | 
[V:1] F8- | 
[V:2] c8- | 
[V:3] A4F4 | 
[V:4] F3EF2G2 | 
[V:5] C,8- | 
[V:6] F,,8- | 
[V:1] F8 |]  
[V:2] c8 |]  
[V:3] F8 |]  
[V:4] A8 |]  
[V:5] C,8 |]  
[V:6] F,,8 |]  



